src/assets/icons/letters,simple,sans-a.svg

<svg width="48" height="48" viewBox="0 0 48 48" fill="none" xmlns="http://www.w3.org/2000/svg">
<rect opacity="0.2" x="5" y="5" width="38" height="38" rx="4" fill="black"/>
<path d="M18.2508 36L19.9241 30.859H28.0594L29.7327 36H34.8406L27.0686 13.4545H20.9259L13.1428 36H18.2508ZM21.135 27.1381L23.9092 18.6065H24.0853L26.8595 27.1381H21.135Z" fill="black"/>
</svg>

<svg xmlns="http://www.w3.org/2000/svg" width="48" height="48" fill="none" viewBox="0 0 48 48">
  <rect width="38" height="38" x="5" y="5" fill="#000" opacity=".2" rx="4"/>
  <path fill="#000" d="M18.25 36l1.674-5.141h8.135L29.733 36h5.108l-7.772-22.546h-6.143L13.143 36h5.108zm2.885-8.862l2.774-8.532h.176l2.774 8.532h-5.724z"/>
</svg>
